X: 91
T: Sporting Paddy
B: begged borrowed and stolen
M:4/4
L:1/8
R: Reel
Q: 1/4=100
K:G
V:1 
|"Am"EAAB GABG | EAAB "G"A2 ED |"Am" EAAB GABd | edge "G"dBAG |
"Am"EAAG GABG | "Am"EAAB "G"A2 ED| "Am"EA AB GABd | efge "G"d2  ef ||
|"Am"  ge e2 gede | ge e2 "G"a2 ba | "Am"ge e2 ge d2 |efge "G"d2 ef | 
"Am"ge e2 gede| ge e2 "G"a2 ga | "Am"bgab "G"gabg |"Am"efge "G"dBAG ||
% abcbook-tune_id 627e2b1f46c732833ba6bcc9


% abcbook-boost 0
% abcbook-tablature 
% abcbook-transpose 
% abcbook-lastupdated 1652725431132
% abcbook-soundfonts 
% abcbook-repeats 3
% Rhythm Reel
% Titles One title
% Transcriptions Only 1 transcription
% Movement Has lots of stepwise movement
% Movement Has some stepwise movement
% Mode major
% Key G
% Time_signature 4/4
% Has_accompaniment_chords No chords

